X: 25270
T: Man In The Moon, The
R: jig
M: 6/8
K: Edorian
BGE E3|B,EG BAG|AFE D2F|A,DD FGA|
BGE E3|B,EG BAG|AFE DF/G/A|1 BGE E2A:|2 BGE E2B||
|:efe eBG|EGB efe|d3 dAF|DFA def|
e3 eBG|EGB efe|dBA FGA|1 BGE E2B:|2 BGE E2A||

